images/svg/lock_gray.svg

<svg xmlns="http://www.w3.org/2000/svg" xmlns:xlink="http://www.w3.org/1999/xlink" width="17.41" height="20.333" viewBox="0 0 17.41 20.333">
  <defs>
    <clipPath id="clip-path">
      <path id="Clip_6" data-name="Clip 6" d="M0,0H17.41V19.27H0Z" transform="translate(0 0.667)" fill="none"/>
    </clipPath>
  </defs>
  <g id="Group_8_Copy" data-name="Group 8 Copy" transform="translate(0 -0.667)">
    <path id="Fill_1" data-name="Fill 1" d="M2.283,3V1.958A1.046,1.046,0,0,0,3,1.059C3,.254,1.729-.34.529.219A.694.694,0,0,0,.307.377c-.589.639-.261,1.288.411,1.581V3Z" transform="translate(7 13)" fill="#fff"/>
    <path id="Fill_3" data-name="Fill 3" d="M1.818,1H15.181A1.872,1.872,0,0,0,17,0H0A1.871,1.871,0,0,0,1.818,1" transform="translate(0 20)" fill="#9b9b9b"/>
    <g id="Group_7" data-name="Group 7">
      <path id="Clip_6-2" data-name="Clip 6" d="M0,0H17.41V19.27H0Z" transform="translate(0 0.667)" fill="none"/>
      <g id="Group_7-2" data-name="Group 7" clip-path="url(#clip-path)">
        <path id="Fill_5" data-name="Fill 5" d="M17.41,19.27H0V9.788A1.2,1.2,0,0,1,1.2,8.6H2.427V5.882A5.651,5.651,0,0,1,5.416.85,7.02,7.02,0,0,1,8.705,0a6.286,6.286,0,0,1,6.279,6.278h-.04V8.6h1.272A1.2,1.2,0,0,1,17.41,9.788v9.481Zm-8.7-6.939a1.788,1.788,0,0,0-.992.317.794.794,0,0,0-.229.229A1.705,1.705,0,0,0,7.21,14.2a1.543,1.543,0,0,0,.7.967v1.508h1.6V15.163a1.529,1.529,0,0,0-.8-2.832Zm0-9.576a4.043,4.043,0,0,0-2.185.674A2.89,2.89,0,0,0,5.18,5.888V8.6h7.026V5.867A3.524,3.524,0,0,0,8.706,2.755Z" transform="translate(0 0.667)" fill="#9b9b9b"/>
      </g>
    </g>
  </g>
</svg>

<?xml version="1.0" encoding="utf-8"?>
<!-- Generator: Adobe Illustrator 24.1.1, SVG Export Plug-In . SVG Version: 6.00 Build 0)  -->
<svg version="1.1" id="圖層_1" xmlns="http://www.w3.org/2000/svg" xmlns:xlink="http://www.w3.org/1999/xlink" x="0px" y="0px"
	 width="17.4px" height="20.3px" viewBox="0 0 17.4 20.3" style="enable-background:new 0 0 17.4 20.3;" xml:space="preserve">
<style type="text/css">
	.st0{fill:#9B9B9B;}
	.st1{fill:none;}
	.st2{clip-path:url(#SVGID_2_);}
</style>
<path id="Fill_3" class="st0" d="M1.8,20.3h13.4c0.8,0.1,1.5-0.3,1.8-1H0C0.3,20,1.1,20.4,1.8,20.3"/>
<g id="Group_7">
	<path id="Clip_6-2" class="st1" d="M0,0h17.4v19.3H0V0z"/>
	<g>
		<defs>
			<rect id="SVGID_1_" y="0" width="17.4" height="19.3"/>
		</defs>
		<clipPath id="SVGID_2_">
			<use xlink:href="#SVGID_1_"  style="overflow:visible;"/>
		</clipPath>
		<g id="Group_7-2" class="st2">
			<path id="Fill_5" class="st0" d="M17.4,19.3H0V9.8c0-0.7,0.5-1.2,1.2-1.2h1.2V5.9c0-2.1,1.1-4,3-5C6.4,0.3,7.6,0,8.7,0
				C12.2,0,15,2.8,15,6.3h0v2.3h1.3c0.7,0,1.2,0.5,1.2,1.2V19.3L17.4,19.3z M8.7,12.3c-0.4,0-0.7,0.1-1,0.3
				c-0.1,0.1-0.2,0.1-0.2,0.2c-0.3,0.4-0.4,0.9-0.3,1.3c0.1,0.4,0.3,0.8,0.7,1v1.5h1.6v-1.5c0.7-0.4,0.9-1.4,0.5-2.1
				C9.7,12.6,9.2,12.3,8.7,12.3z M8.7,2.8C7.9,2.8,7.2,3,6.5,3.4C5.7,4,5.2,4.9,5.2,5.9v2.7h7V5.9C12,4.1,10.5,2.8,8.7,2.8L8.7,2.8z
				"/>
		</g>
	</g>
</g>
</svg>
